dist/img/svg/air-purification/steps/external-conditioner.svg

<svg width="50" height="51" viewBox="0 0 50 51" fill="none" xmlns="http://www.w3.org/2000/svg">
<path d="M29.7992 15.3576C29.7992 17.2414 29.4411 18.977 28.8392 20.367C29.1897 20.613 29.5154 20.8914 29.8123 21.1984L38.3364 12.6683C34.9712 9.26066 30.3118 7.13679 25.156 7.09467C27.7243 7.13688 29.7992 10.8193 29.7992 15.3576Z" fill="#D9FADD"/>
<path d="M14.1882 29.8838C15.5192 28.5518 16.9987 27.578 18.4064 27.021C18.3401 26.6425 18.3035 26.2536 18.3035 25.8561C18.3035 25.8187 18.3058 25.7817 18.3063 25.7444H6.25137C6.25117 25.7818 6.25 25.8189 6.25 25.8562C6.25 30.9827 8.30527 35.6282 11.6353 39.0147C9.84551 37.1687 10.98 33.0944 14.1882 29.8838Z" fill="#D9FADD"/>
<path d="M20.2009 36.3546C20.2009 34.4708 20.559 32.7351 21.1609 31.3452C20.8104 31.0992 20.4847 30.8208 20.1878 30.5137L11.6637 39.0439C15.0288 42.4515 19.6883 44.5754 24.8441 44.6175C22.2758 44.5754 20.2009 40.893 20.2009 36.3546Z" fill="#D9FADD"/>
<path d="M20.9752 15.0367C22.3063 16.3687 23.2793 17.8492 23.8361 19.2579C24.2143 19.1916 24.6029 19.1549 25.0001 19.1549C25.0376 19.1549 25.0745 19.1572 25.1118 19.1578V7.0942C25.0744 7.09401 25.0374 7.09283 25 7.09283C19.8772 7.09283 15.235 9.14957 11.8508 12.4819C13.6956 10.6909 17.7669 11.8262 20.9752 15.0367Z" fill="#D9FADD"/>
<path d="M14.5089 21.0536C16.3913 21.0536 18.1257 21.412 19.5147 22.0143C19.7605 21.6636 20.0388 21.3375 20.3456 21.0406L11.8215 12.5104C8.41628 15.8779 6.29392 20.5407 6.25183 25.7001C6.29402 23.13 9.9738 21.0536 14.5089 21.0536Z" fill="#D9FADD"/>
<path d="M35.491 30.6587C33.6086 30.6587 31.8741 30.3003 30.4852 29.698C30.2394 30.0488 29.961 30.3747 29.6543 30.6718L38.1784 39.2019C41.5836 35.8344 43.706 31.1716 43.748 26.0122C43.7059 28.5823 40.0261 30.6587 35.491 30.6587Z" fill="#D9FADD"/>
<path d="M35.8118 21.8285C34.4807 23.1605 33.0012 24.1343 31.5935 24.6914C31.6598 25.0699 31.6964 25.4587 31.6964 25.8563C31.6964 25.8937 31.6942 25.9306 31.6936 25.968H43.7486C43.7488 25.9306 43.75 25.8936 43.75 25.8563C43.75 20.7298 41.6947 16.0844 38.3648 12.6978C40.1544 14.5438 39.02 18.618 35.8118 21.8285Z" fill="#D9FADD"/>
<path d="M29.0248 36.6757C27.6938 35.3437 26.7206 33.8631 26.164 32.4544C25.7858 32.5208 25.3972 32.5574 24.9999 32.5574C24.9625 32.5574 24.9256 32.5552 24.8883 32.5546V44.6181C24.9256 44.6183 24.9626 44.6195 24.9999 44.6195C30.1228 44.6195 34.765 42.5628 38.1491 39.2304C36.3045 41.0214 32.2331 39.8862 29.0248 36.6757Z" fill="#D9FADD"/>
<path d="M35.4911 30.6587C40.0524 30.6587 43.75 28.5585 43.75 25.9678H31.6935C31.6708 27.3547 31.2275 28.6385 30.4851 29.698C31.8742 30.3003 33.6085 30.6587 35.4911 30.6587Z" fill="#C3FF17"/>
<path d="M35.8119 21.8285C39.0372 18.6009 40.1678 14.4993 38.3373 12.6675L29.8123 21.1986C30.722 22.1396 31.3579 23.3463 31.5936 24.6913C33.0012 24.1342 34.4808 23.1605 35.8119 21.8285Z" fill="#C3FF17"/>
<path d="M29.7991 15.3576C29.7991 10.793 27.7004 7.09283 25.1116 7.09283V19.1578C26.4974 19.1806 27.7803 19.6242 28.8391 20.3671C29.441 18.9771 29.7991 17.2414 29.7991 15.3576Z" fill="#C3FF17"/>
<path d="M20.9752 15.0367C17.7499 11.8091 13.6512 10.6776 11.8207 12.5095L20.3457 21.0405C21.286 20.1302 22.4918 19.4938 23.8359 19.2579C23.2793 17.8492 22.3062 16.3687 20.9752 15.0367Z" fill="#C3FF17"/>
<path d="M14.5089 21.0536C9.94756 21.0536 6.25 23.1538 6.25 25.7445H18.3064C18.3292 24.3577 18.7725 23.0738 19.5148 22.0143C18.1258 21.412 16.3914 21.0536 14.5089 21.0536Z" fill="#C3FF17"/>
<path d="M14.1882 29.8838C10.9629 33.1114 9.83227 37.213 11.6628 39.0448L20.1879 30.5138C19.2782 29.5727 18.6423 28.3662 18.4066 27.0211C16.9989 27.5781 15.5193 28.5518 14.1882 29.8838Z" fill="#C3FF17"/>
<path d="M20.2009 36.3546C20.2009 40.9192 22.2996 44.6195 24.8884 44.6195V32.5544C23.5026 32.5317 22.2197 32.0881 21.1609 31.3451C20.5591 32.7352 20.2009 34.4708 20.2009 36.3546Z" fill="#C3FF17"/>
<path d="M29.0248 36.6757C32.2501 39.9032 36.3487 41.0347 38.1793 39.2028L29.6543 30.6717C28.7139 31.5821 27.5082 32.2184 26.1641 32.4543C26.7207 33.863 27.6937 35.3437 29.0248 36.6757Z" fill="#C3FF17"/>
<path d="M25.0001 19.1548C21.3018 19.1548 18.3037 22.155 18.3037 25.8561C18.3037 29.5571 21.3018 32.5572 25.0001 32.5572C28.6984 32.5572 31.6965 29.5571 31.6965 25.8561C31.6965 22.1551 28.6984 19.1548 25.0001 19.1548Z" fill="#D9FADD"/>
<path d="M25.0002 28.0898C26.233 28.0898 27.2323 27.0897 27.2323 25.8561C27.2323 24.6224 26.233 23.6224 25.0002 23.6224C23.7674 23.6224 22.7681 24.6224 22.7681 25.8561C22.7681 27.0897 23.7674 28.0898 25.0002 28.0898Z" fill="#C3FF17"/>
<path d="M45.1172 0.838379H4.88281C2.19043 0.838379 0 3.03037 0 5.72466V45.9876C0 48.6819 2.19043 50.8739 4.88281 50.8739H45.1172C47.8096 50.8739 50 48.6819 50 45.9876V5.72466C50 3.03037 47.8096 0.838379 45.1172 0.838379ZM48.0469 45.9876C48.0469 47.6042 46.7326 48.9194 45.1172 48.9194H4.88281C3.26738 48.9194 1.95312 47.6042 1.95312 45.9876V5.72466C1.95312 4.10808 3.26738 2.79289 4.88281 2.79289H45.1172C46.7326 2.79289 48.0469 4.10808 48.0469 5.72466V45.9876Z" fill="#5CCD6A"/>
<path d="M45.0195 41.0036C44.4803 41.0036 44.043 41.4412 44.043 41.9809C44.043 43.5974 42.7287 44.9126 41.1133 44.9126C40.574 44.9126 40.1367 45.3502 40.1367 45.8899C40.1367 46.4295 40.574 46.8671 41.1133 46.8671C43.8057 46.8671 45.9961 44.6752 45.9961 41.9809C45.9961 41.4412 45.5588 41.0036 45.0195 41.0036Z" fill="#5CCD6A"/>
<path d="M41.1133 4.84515C40.574 4.84515 40.1367 5.28277 40.1367 5.82241C40.1367 6.36205 40.574 6.79967 41.1133 6.79967C42.7287 6.79967 44.043 8.11486 44.043 9.73144C44.043 10.2711 44.4803 10.7087 45.0195 10.7087C45.5588 10.7087 45.9961 10.2711 45.9961 9.73144C45.9961 7.03714 43.8057 4.84515 41.1133 4.84515Z" fill="#5CCD6A"/>
<path d="M4.98047 10.7087C5.51982 10.7087 5.95703 10.2711 5.95703 9.73144C5.95703 8.11486 7.27129 6.79967 8.88672 6.79967C9.42607 6.79967 9.86328 6.36205 9.86328 5.82241C9.86328 5.28277 9.42607 4.84515 8.88672 4.84515C6.19434 4.84515 4.00391 7.03714 4.00391 9.73144C4.00391 10.2711 4.44111 10.7087 4.98047 10.7087Z" fill="#5CCD6A"/>
<path d="M8.88672 44.9126C7.27129 44.9126 5.95703 43.5974 5.95703 41.9809C5.95703 41.4412 5.51982 41.0036 4.98047 41.0036C4.44111 41.0036 4.00391 41.4412 4.00391 41.9809C4.00391 44.6752 6.19434 46.8671 8.88672 46.8671C9.42607 46.8671 9.86328 46.4295 9.86328 45.8899C9.86328 45.3502 9.42607 44.9126 8.88672 44.9126Z" fill="#5CCD6A"/>
<path d="M41.1133 43.0558C41.7066 43.0558 42.1875 42.5746 42.1875 41.9809C42.1875 41.3872 41.7066 40.9059 41.1133 40.9059C40.52 40.9059 40.0391 41.3872 40.0391 41.9809C40.0391 42.5746 40.52 43.0558 41.1133 43.0558Z" fill="#5CCD6A"/>
<path d="M8.98438 43.0558C9.57765 43.0558 10.0586 42.5746 10.0586 41.9809C10.0586 41.3872 9.57765 40.9059 8.98438 40.9059C8.3911 40.9059 7.91016 41.3872 7.91016 41.9809C7.91016 42.5746 8.3911 43.0558 8.98438 43.0558Z" fill="#5CCD6A"/>
<path d="M41.1133 10.8064C41.7066 10.8064 42.1875 10.3251 42.1875 9.73142C42.1875 9.13772 41.7066 8.65643 41.1133 8.65643C40.52 8.65643 40.0391 9.13772 40.0391 9.73142C40.0391 10.3251 40.52 10.8064 41.1133 10.8064Z" fill="#5CCD6A"/>
<path d="M8.98438 10.8064C9.57765 10.8064 10.0586 10.3251 10.0586 9.73142C10.0586 9.13772 9.57765 8.65643 8.98438 8.65643C8.3911 8.65643 7.91016 9.13772 7.91016 9.73142C7.91016 10.3251 8.3911 10.8064 8.98438 10.8064Z" fill="#5CCD6A"/>
<path d="M38.9542 39.7961C42.4605 36.2813 44.6521 31.4538 44.7232 26.1235C44.7254 26.0718 44.7267 26.0199 44.7267 25.9678C44.7267 25.9602 44.7257 25.953 44.7255 25.9454C44.7256 25.9155 44.7266 25.8859 44.7266 25.8561C44.7266 20.5675 42.6372 15.7582 39.2415 12.2107C39.1737 12.1302 39.1029 12.0517 39.0276 11.9764C38.9968 11.9456 38.9639 11.9181 38.9301 11.8922C35.4178 8.38326 30.5937 6.1901 25.267 6.11896C25.2153 6.11681 25.1635 6.11554 25.1114 6.11554C25.1038 6.11554 25.0966 6.11652 25.0891 6.11671C25.0594 6.11652 25.0298 6.11554 25 6.11554C19.7166 6.11554 14.912 8.20521 11.3673 11.6015C11.2856 11.6703 11.2063 11.7422 11.1302 11.8184C11.0998 11.8489 11.0725 11.8816 11.0466 11.9155C7.53984 15.4304 5.34805 20.258 5.27695 25.5887C5.2748 25.6404 5.27354 25.6923 5.27354 25.7444C5.27354 25.752 5.27451 25.7593 5.27471 25.7668C5.27441 25.7967 5.27344 25.8263 5.27344 25.8561C5.27344 31.1446 7.3627 35.9538 10.7583 39.5014C10.8261 39.582 10.897 39.6605 10.9723 39.7358C11.0032 39.7668 11.0361 39.7942 11.0699 39.8202C14.5822 43.329 19.4062 45.5221 24.7328 45.5933C24.7845 45.5954 24.8363 45.5967 24.8884 45.5967C24.896 45.5967 24.9033 45.5957 24.9108 45.5955C24.9406 45.5957 24.9702 45.5967 25 45.5967C30.2882 45.5967 35.0967 43.5031 38.6424 40.1013C38.7204 40.0352 38.7969 39.9669 38.8699 39.8937C38.9008 39.8628 38.9282 39.8299 38.9542 39.7961ZM11.8414 13.9123L18.5534 20.6291C17.3381 20.274 15.9681 20.0763 14.5089 20.0763C11.7715 20.0763 9.34785 20.7721 7.6709 21.8974C8.36094 18.871 9.82412 16.1358 11.8414 13.9123ZM19.2802 25.8561C19.2802 22.7 21.8461 20.1322 25 20.1322C28.1539 20.1322 30.7198 22.7 30.7198 25.8561C30.7198 29.0123 28.1539 31.58 25 31.58C21.8461 31.58 19.2802 29.0123 19.2802 25.8561ZM23.9118 33.456V43.3578C23.373 43.0451 22.858 42.4832 22.4231 41.7163C21.6198 40.3001 21.1774 38.3958 21.1774 36.3547C21.1774 35.0796 21.3509 33.8588 21.6763 32.7762C22.37 33.1112 23.122 33.3432 23.9118 33.456ZM17.7607 28.3972C18.023 29.1432 18.396 29.8375 18.8621 30.4584L11.8638 37.4616C11.7038 36.8593 11.7366 36.0976 11.971 35.2477C12.4038 33.6778 13.4364 32.0182 14.8787 30.5749C15.78 29.673 16.7654 28.9319 17.7607 28.3972ZM17.4056 24.7672H7.51074C7.82324 24.228 8.38477 23.7126 9.15098 23.2774C10.5663 22.4735 12.4691 22.0308 14.5089 22.0308C15.7832 22.0308 17.003 22.2046 18.0846 22.5305C17.75 23.2247 17.5182 23.977 17.4056 24.7672ZM13.4026 12.7106C14.0047 12.5505 14.7657 12.5832 15.6152 12.8179C17.184 13.2509 18.8423 14.2843 20.2846 15.7276C21.1858 16.6295 21.9258 17.6158 22.4604 18.6117C21.715 18.8742 21.0214 19.2473 20.401 19.7138L13.4026 12.7106ZM26.0882 18.2563V8.35443C26.627 8.66716 27.142 9.22908 27.5769 9.99593C28.3802 11.4122 28.8226 13.3164 28.8226 15.3576C28.8226 16.6328 28.6488 17.8534 28.3232 18.9358C27.6296 18.601 26.8778 18.369 26.0882 18.2563ZM29.599 31.9985L36.5974 39.0017C35.9953 39.1618 35.2341 39.129 34.3848 38.8944C32.816 38.4614 31.1577 37.4279 29.7154 35.9846C28.8142 35.0827 28.0746 34.0963 27.5399 33.1003C28.2852 32.8378 28.9787 32.4647 29.599 31.9985ZM32.5944 26.9451H42.4893C42.1768 27.4842 41.6152 27.9996 40.8489 28.4348C39.4337 29.2387 37.5309 29.6814 35.4911 29.6814C34.2169 29.6814 32.9971 29.5077 31.9152 29.182C32.25 28.4879 32.4818 27.7354 32.5944 26.9451ZM31.138 21.2538L38.1362 14.2506C38.2962 14.8529 38.2634 15.6148 38.029 16.4647C37.5963 18.0346 36.5636 19.694 35.1213 21.1373C34.22 22.0393 33.2345 22.7799 32.2392 23.3147C31.9769 22.5688 31.604 21.8747 31.138 21.2538ZM33.2513 24.9906C34.3617 24.3816 35.4704 23.5521 36.5024 22.5196C38.435 20.5857 39.6558 18.3827 40.0484 16.4028C41.6294 18.9142 42.6009 21.8463 42.7522 24.9906H33.2513ZM30.2233 19.405C30.5781 18.1888 30.7757 16.8178 30.7757 15.3577C30.7757 12.6183 30.0804 10.1929 28.956 8.5148C31.9803 9.20533 34.7135 10.6697 36.9354 12.6883L30.2233 19.405ZM24.1351 17.5984C23.5266 16.4874 22.6976 15.3782 21.6657 14.3456C19.9883 12.667 18.0239 11.4553 16.1346 10.9337C15.9377 10.8794 15.7446 10.8356 15.5535 10.7971C18.063 9.21501 20.9931 8.24293 24.1351 8.09145V17.5984ZM16.7481 26.7217C15.6379 27.3306 14.5295 28.1602 13.4977 29.1927C11.5651 31.1267 10.3444 33.3295 9.95166 35.3093C8.3707 32.7981 7.39922 29.8658 7.24785 26.7217H16.7481ZM19.7766 32.3074C19.4218 33.5236 19.2243 34.8946 19.2243 36.3547C19.2243 39.094 19.9196 41.5194 21.044 43.1975C18.0197 42.507 15.2865 41.0427 13.0646 39.0241L19.7766 32.3074ZM25.8649 34.1138C26.4734 35.2249 27.3024 36.3342 28.3342 37.3666C30.2665 39.3003 32.4675 40.5225 34.4457 40.9156C31.9363 42.4974 29.0065 43.4694 25.8649 43.6208V34.1138ZM31.4466 31.0832C32.6619 31.4382 34.0319 31.6359 35.491 31.6359C38.2284 31.6359 40.6521 30.9401 42.329 29.8149C41.639 32.8414 40.1757 35.5765 38.1585 37.8001L31.4466 31.0832Z" fill="#5CCD6A"/>
<path d="M28.2089 25.8457C28.2031 24.0752 26.7589 22.6394 24.9897 22.6452C23.2204 22.6509 21.7857 24.0961 21.7915 25.8667C21.7973 27.6372 23.2414 29.073 25.0107 29.0672C26.78 29.0613 28.2148 27.6162 28.2089 25.8457ZM23.7446 25.8602C23.7424 25.1674 24.3038 24.6019 24.9961 24.5997C25.6885 24.5974 26.2535 25.1592 26.2558 25.852C26.258 26.5448 25.6966 27.1103 25.0043 27.1126C24.312 27.1148 23.7469 26.5531 23.7446 25.8602Z" fill="#5CCD6A"/>
</svg>

<svg width="50" height="51" fill="none" xmlns="http://www.w3.org/2000/svg"><path d="M29.8 15.358c0 1.883-.359 3.619-.96 5.009.35.246.675.524.972.831l8.524-8.53a18.684 18.684 0 00-13.18-5.573c2.568.042 4.643 3.724 4.643 8.263zM14.188 29.884c1.331-1.332 2.81-2.306 4.218-2.863a6.744 6.744 0 01-.102-1.165l.002-.112H6.251l-.001.112c0 5.127 2.055 9.772 5.385 13.159-1.79-1.846-.655-5.92 2.553-9.131zm6.012 6.471c0-1.884.359-3.62.96-5.01a6.735 6.735 0 01-.972-.831l-8.524 8.53a18.684 18.684 0 0013.18 5.574c-2.568-.043-4.643-3.725-4.643-8.263zm.775-21.318c1.331 1.332 2.304 2.812 2.861 4.22A6.734 6.734 0 0125 19.156c.038 0 .075.002.112.003V7.094L25 7.093a18.682 18.682 0 00-13.15 5.389c1.846-1.791 5.917-.656 9.125 2.555zm-6.466 6.017c1.882 0 3.617.358 5.006.96.245-.35.524-.677.83-.973l-8.523-8.53a18.71 18.71 0 00-5.57 13.19c.042-2.571 3.722-4.647 8.257-4.647zm20.982 9.605c-1.882 0-3.617-.359-5.006-.961-.246.35-.524.677-.83.974l8.523 8.53a18.71 18.71 0 005.57-13.19c-.042 2.57-3.722 4.647-8.257 4.647zm.321-8.831c-1.331 1.332-2.81 2.306-4.218 2.863.066.379.102.768.102 1.165l-.002.112h12.055l.001-.112c0-5.126-2.055-9.772-5.385-13.158 1.79 1.846.655 5.92-2.553 9.13zm-6.787 14.848c-1.331-1.332-2.304-2.813-2.861-4.222a6.724 6.724 0 01-1.164.103l-.112-.002v12.063l.112.002c5.123 0 9.765-2.057 13.15-5.39-1.846 1.791-5.917.656-9.125-2.554z" fill="#D9FADD"/><path d="M35.491 30.659c4.561 0 8.259-2.1 8.259-4.691H31.694a6.67 6.67 0 01-1.209 3.73c1.39.602 3.123.96 5.006.96zm.321-8.831c3.225-3.227 4.356-7.329 2.525-9.16l-8.525 8.53a6.682 6.682 0 011.782 3.493c1.407-.557 2.887-1.53 4.218-2.863zm-6.012-6.47c0-4.565-2.1-8.265-4.688-8.265v12.065a6.66 6.66 0 013.727 1.21c.602-1.39.96-3.127.96-5.01zm-8.825-.321c-3.225-3.228-7.324-4.36-9.154-2.528l8.525 8.532a6.674 6.674 0 013.49-1.783c-.557-1.409-1.53-2.89-2.86-4.221zm-6.466 6.017c-4.561 0-8.259 2.1-8.259 4.69h12.056a6.671 6.671 0 011.209-3.73c-1.39-.602-3.124-.96-5.006-.96zm-.321 8.83c-3.225 3.227-4.356 7.329-2.525 9.16l8.525-8.53a6.682 6.682 0 01-1.781-3.493c-1.408.557-2.888 1.53-4.219 2.863zm6.012 6.471c0 4.564 2.1 8.265 4.688 8.265V32.553a6.658 6.658 0 01-3.727-1.209c-.602 1.39-.96 3.126-.96 5.01zm8.825.321c3.225 3.227 7.324 4.359 9.154 2.527l-8.525-8.531a6.674 6.674 0 01-3.49 1.782c.557 1.409 1.53 2.89 2.86 4.222z" fill="#C3FF17"/><path d="M25 19.155c-3.698 0-6.696 3-6.696 6.701A6.699 6.699 0 0025 32.557a6.7 6.7 0 006.697-6.7A6.699 6.699 0 0025 19.154z" fill="#D9FADD"/><path d="M25 28.09a2.233 2.233 0 100-4.466 2.233 2.233 0 000 4.466z" fill="#C3FF17"/><path d="M45.117.838H4.883A4.89 4.89 0 000 5.725v40.263a4.89 4.89 0 004.883 4.886h40.234A4.89 4.89 0 0050 45.988V5.725A4.89 4.89 0 0045.117.838zm2.93 45.15a2.934 2.934 0 01-2.93 2.931H4.883a2.934 2.934 0 01-2.93-2.931V5.725a2.934 2.934 0 012.93-2.932h40.234a2.934 2.934 0 012.93 2.932v40.263z" fill="#5CCD6A"/><path d="M45.02 41.004a.977.977 0 00-.977.977 2.934 2.934 0 01-2.93 2.932.977.977 0 000 1.954 4.89 4.89 0 004.883-4.886.977.977 0 00-.977-.977zM41.113 4.845a.977.977 0 000 1.955 2.934 2.934 0 012.93 2.931.977.977 0 101.953 0 4.89 4.89 0 00-4.883-4.886zM4.98 10.709c.54 0 .977-.438.977-.978A2.934 2.934 0 018.887 6.8a.977.977 0 000-1.955 4.89 4.89 0 00-4.883 4.886c0 .54.437.978.976.978zm3.907 34.204a2.934 2.934 0 01-2.93-2.932.977.977 0 10-1.953 0 4.89 4.89 0 004.883 4.886.977.977 0 000-1.954zm32.226-1.857a1.074 1.074 0 100-2.15 1.074 1.074 0 000 2.15zm-32.129 0a1.075 1.075 0 100-2.15 1.075 1.075 0 000 2.15zm32.129-32.25a1.075 1.075 0 100-2.149 1.075 1.075 0 000 2.15zm-32.129 0a1.075 1.075 0 100-2.149 1.075 1.075 0 000 2.15zm29.97 28.99a19.685 19.685 0 005.773-13.828l-.002-.023.002-.089a19.68 19.68 0 00-5.485-13.645 3.71 3.71 0 00-.214-.235.977.977 0 00-.098-.084 19.657 19.657 0 00-13.819-5.776H25a19.65 19.65 0 00-13.633 5.486c-.081.068-.16.14-.237.216a.973.973 0 00-.083.098 19.685 19.685 0 00-5.773 13.828v.113A19.68 19.68 0 0010.757 39.5c.068.081.139.16.214.235.031.03.064.058.098.084a19.657 19.657 0 0013.818 5.777l.023-.002.089.002A19.65 19.65 0 0038.642 40.1c.078-.066.155-.134.228-.207a.99.99 0 00.084-.098zM11.841 13.912l6.712 6.717a14.487 14.487 0 00-4.044-.553c-2.738 0-5.161.696-6.838 1.821a17.763 17.763 0 014.17-7.985zm7.44 11.944A5.728 5.728 0 0125 20.132a5.728 5.728 0 015.72 5.724A5.728 5.728 0 0125 31.58a5.728 5.728 0 01-5.72-5.724zm4.63 7.6v9.902c-.538-.313-1.053-.875-1.488-1.642-.803-1.416-1.246-3.32-1.246-5.361 0-1.275.174-2.496.5-3.579a7.61 7.61 0 002.235.68zm-6.15-5.059c.262.746.635 1.44 1.101 2.061l-6.998 7.004c-.16-.603-.127-1.364.107-2.214.433-1.57 1.465-3.23 2.908-4.673.901-.902 1.886-1.643 2.882-2.178zm-.355-3.63H7.51c.312-.539.874-1.054 1.64-1.49 1.415-.803 3.318-1.246 5.358-1.246 1.274 0 2.494.174 3.576.5a7.623 7.623 0 00-.68 2.236zm-4.003-12.056c.602-.16 1.363-.128 2.212.107 1.569.433 3.227 1.466 4.67 2.91.9.902 1.64 1.888 2.175 2.884a7.659 7.659 0 00-2.059 1.102l-6.998-7.003zm12.685 5.545V8.354c.539.313 1.054.875 1.489 1.642.803 1.416 1.246 3.32 1.246 5.362 0 1.275-.174 2.495-.5 3.578a7.61 7.61 0 00-2.235-.68zM29.6 31.998l6.998 7.004c-.602.16-1.363.127-2.212-.108-1.569-.433-3.227-1.466-4.67-2.91-.9-.901-1.64-1.888-2.175-2.884a7.665 7.665 0 002.059-1.102zm2.995-5.053h9.895c-.312.54-.874 1.055-1.64 1.49-1.415.804-3.318 1.246-5.358 1.246-1.274 0-2.494-.173-3.576-.499a7.617 7.617 0 00.68-2.237zm-1.456-5.691l6.998-7.003c.16.602.127 1.364-.107 2.214-.433 1.57-1.465 3.229-2.908 4.672-.901.902-1.887 1.643-2.882 2.178a7.673 7.673 0 00-1.101-2.061zm2.113 3.737a14.506 14.506 0 003.251-2.471c1.933-1.934 3.154-4.137 3.546-6.117a17.678 17.678 0 012.704 8.588h-9.5zm-3.028-5.586c.355-1.216.553-2.587.553-4.047 0-2.74-.696-5.165-1.82-6.843a17.742 17.742 0 017.98 4.173l-6.713 6.717zm-6.088-1.807a14.508 14.508 0 00-2.47-3.252c-1.677-1.679-3.641-2.89-5.53-3.412a8.453 8.453 0 00-.582-.137 17.648 17.648 0 018.582-2.706v9.507zm-7.387 9.124a14.5 14.5 0 00-3.25 2.47c-1.933 1.935-3.154 4.138-3.546 6.117a17.678 17.678 0 01-2.704-8.587h9.5zm3.029 5.585a14.519 14.519 0 00-.553 4.048c0 2.739.696 5.164 1.82 6.843a17.742 17.742 0 01-7.98-4.174l6.713-6.717zm6.088 1.807a14.504 14.504 0 002.47 3.253c1.931 1.933 4.133 3.156 6.11 3.549a17.648 17.648 0 01-8.58 2.705v-9.507zm5.582-3.03a14.49 14.49 0 004.044.552c2.737 0 5.161-.696 6.838-1.821a17.763 17.763 0 01-4.17 7.985l-6.712-6.717z" fill="#5CCD6A"/><path d="M28.209 25.846a3.214 3.214 0 00-3.22-3.2 3.213 3.213 0 00-3.198 3.22 3.214 3.214 0 003.22 3.201 3.214 3.214 0 003.198-3.221zm-4.464.014a1.257 1.257 0 011.251-1.26 1.257 1.257 0 01.008 2.513 1.258 1.258 0 01-1.26-1.253z" fill="#5CCD6A"/></svg>
